X:1
T:King of Kings (Werdebaugh)
T:King of Kings (Werdebaugh)
T:Scott Werdebaugh
T:Adapted from Psalm 136
T:© 2018 by Scott Werdebaugh &amp; New Heart Music - May be copied and used freely for Christian worship or devotions with no alterations. All other rights  reserved.
T:© 2018 by Scott Werdebaugh &amp; New Heart Music - May be copied and used freely for Christian worship or devotions with no alterations. All other rights  reserved.
C:Scott Werdebaugh
Z:© 2018 by Scott Werdebaugh & New Heart Music - May be copied and used freely for
Z:Christian worship or devotions with no alterations. All other rights  reserved.
%%score 1 2
L:1/8
Q:1/4=125
M:4/4
K:C
V:1 treble 
V:2 bass 
V:1
"^In reverent worship" [EG]2 | [Ec]2 [DB]2 [CA]2 [EG]2 | [FA]2 [DB]2 [Ec]3 [DB] | %3
w: 1.~O|thank the Lord, the|Lord of love; O|
w: 2.~Give|thanks to God, for|good is He, Thanks|
w: 3.~Who|thought on us a-|midst our woes, And|
w: 4.~O|praise the Lord, for|He is kind, Give|
 [Ec]2 [DB]2 [CA]2 [EG]2 | [DA]2 [D^F]2 !fermata![DG]3 [DB] | [Ec]2 [DB]2 [CA]2 [EG]2 | %6
w: thank the God all|gods a- bove; O|thank the might- y|
w: to the God of|gods give ye; Thanks|give the Lord of|
w: res- cued us from|all our foes; Who|dai- ly feeds each|
w: thanks to Him with|heart and mind; His|mer- cy flows an|
 [DG]2 [D=F]2 [CE]3 [EG] | [CA]2 [DB]2 [Ec]2 [Gd]2 | [Ec]2 [DB]2 !fermata![Ec]4 || %9
w: King of kings, Whose|arm hath done such|won- drous things.|
w: lords un- to, Who|on- ly won- ders|great can do.|
w: liv- ing thing; O|thank the Heav’n’s Al-|might- y King.|
w: end- less stream, To|all e- ter- ni-|ty the same.|
"^Refrain" [Ec]4 [DB]4 | [Ec]6 [EG]2 | [CA]4 [DG]2 [DF]2 | [CA]4 [EG]4 | [Ec]4 [DB]4 | %14
w: |||||
w: |||||
w: |||||
w: |||||
 [Ec]6 [EG]2 | [Ec]4 [DB]2 [Ec]2 | [Fd]4 [Ec]4 | [Ec]4 [DB]4 | [Ec]4 [EG]4 | [CA]4 [Ec]2 [Ec]2 | %20
w: ||||||
w: ||||||
w: ||||||
w: ||||||
 [Fd]4 [Ec]4 | [Ec]4 [DB]4 | [Ec]4 [Fd]4 | [Ge]4 [Fd]4 | [Ec]6 z2"^Play 4 times" :| %25
w: |||||
w: |||||
w: |||||
w: |||||
V:2
 [C,C]2 | [C,G,]2 [G,,G,]2 [F,,F,]2 [C,G,]2 | [F,C]2 [G,,G,]2 [C,G,]3 [G,,G,] | %3
w: |||
 [C,G,]2 [G,,G,]2 [F,,A,]2 [C,C]2 | [D,^F,]2 [D,A,]2 !fermata![G,B,]3 [G,,G,] | %5
w: ||
 [C,G,]2 [G,,G,]2 [F,,=F,]2 [C,G,]2 | [G,B,]2 [G,B,]2 [C,G,]3 [C,C] | %7
w: ||
 [F,A,]2 [G,,G,]2 [C,G,]2 [G,B,]2 | [C,G,]2 [G,,G,]2 !fermata![C,G,]4 || [C,G,]4 [G,,G,]4 | %10
w: ||King of|
 [C,G,]6 [C,C]2 | [F,A,]4 [G,B,]2 [G,B,]2 | [F,A,]4 [C,C]4 | [C,G,]4 [G,,G,]4 | [C,G,]6 [C,C]2 | %15
w: kings for-|ev- er and|ev- er;|Lord of|lords, for-|
 [C,G,]4 [G,,G,]2 [C,G,]2 | [G,B,]4 [C,G,]4 | [C,G,]4 [G,,G,]4 | [C,G,]4 [C,C]4 | %19
w: ev- er and|ev- er,|King of|kings for-|
 [F,A,]4 [C,G,]2 [C,G,]2 | [G,B,]4 [C,G,]4 | [C,G,]4 [G,,G,]4 | [C,G,]4 [G,B,]4 | [C,C]4 [G,B,]4 | %24
w: ev- er and|ev- er;|King of|kings and|Lord of|
 [C,G,]6 z2"^Play 4 times" :| %25
w: lords!|

